svg/airplane_alert.svg

<svg xmlns="http://www.w3.org/2000/svg" viewBox="0 0 24 24"><path d="M17.56 3.91c.59.59.59 1.54 0 2.12l-3.89 3.89 2.12 9.19-1.41 1.42-3.88-7.43L6.6 17l.36 2.47-1.07 1.06-1.76-3.18-3.186-1.77L2 14.5l2.5.37L8.37 11 .944 7.09 2.36 5.68l9.19 2.12 3.89-3.89c.56-.58 1.56-.58 2.12 0M20 7v6h2V7zm0 10h2v-2h-2z"/></svg>

<svg xmlns="http://www.w3.org/2000/svg" id="mdi-airplane-alert" viewBox="0 0 24 24"><path d="M17.56 3.91C18.15 4.5 18.15 5.45 17.56 6.03L13.67 9.92L15.79 19.11L14.38 20.53L10.5 13.1L6.6 17L6.96 19.47L5.89 20.53L4.13 17.35L.944 15.58L2 14.5L4.5 14.87L8.37 11L.944 7.09L2.36 5.68L11.55 7.8L15.44 3.91C16 3.33 17 3.33 17.56 3.91M20 7V13H22V7H20M20 17H22V15H20V17Z" /></svg>
